X: 25235
T: Mama's Pet
R: reel
M: 4/4
K: Gmajor
G2FA EADG|~G2BG dGBA|G2FA EADG|Beed ~B2AB:|
dBGB d2de|dBGB ~e2eB|dBGB d2Bd|eged ~B2AB|
dBGB d2Bd|g2ag egdB|~G2GB A2GA|Beed ~B2AB||

